X: 18
T: William & Jonathan's Waltz
%R: waltz
B: "Twenty Four Country Dances with Figures for the Year 1809", Button & Whitaker, p.9 #2
F: http://www.vwml.org/browse/browse-collections-dance-tune-books/browse-button1809
Z: 2014 John Chambers <jc:trillian.mit.edu>
M: 3/8
L: 1/16
K: C
% - - - - - - - - - - - - - - - - - - - - - - - - - - - - -
(cd) |\
(e2f2d2) | c4(de) | (d2G2).G2 | (d2G2).G2 |\
(e2f2)d2 | c4(de) | .d2({e}dcde) | c4 :|
|: (cd) |\
.e2(e2f2) | g4(fg) | (a2f2).f2 | (g2e2).e2 |\
(ed)e2f2 | g4e2 | .f2({g}fefg) | e4 :|
|: (de) |\
(f2d2).d2 | (e2c2).c2 | d2(edcd) | (e2c2)(de) |\
(f2d2).d2 | (e2c2).c2 | .d2({e}dcde) | c4 :|
% - - - - - - - - - - Dance description - - - - - - - - - -
%%begintext align
%% The 1st & 2d Cu: set & change sides, back again,
%% down the mid: up again, Allemande & Swing corners.
%%endtext

%%sep 1 1 500
%%sep 1 1 500
